X: 12685
T: Father Bernie's
R: hornpipe
M: 4/4
K: Cmajor
|:(3G,A,B,|CEGc ecBc|AFDE FGAc|BG^FG =FGBd|ecBc dBGF|
(3EFE (3DED CEGc|AFDE FGAc|(3Bcd ge fedc|1 (3BAG (3FED C2:|2 BGAB c2||
|:Bc|AE ~E2 ABce|aecB ABce|dB ~B2 GEDC|
[1 B,DGB dBcB|AECB, A,B,CE|ABce aefg|(3agf (3gfe fedc|BGAB c2:|
[2 B,DGB dBed|(3cdc (3BcB AB^GB|ABce aefg|(3agf (3gfe fedc|(3BAG (3FED C2||

